X: 1
T: Back to the Fireside
T: 8x32R 3C (Goldring, RSCDS Bk 38)
T: 1,3 DM set, 1,3 UM; chain; 1,2 set, petro, set, petro; fig8, TR
P: Robert E. Lyon
C: Andrew Lyon
C: RSCDS Bk 38, arr. T. Traub 8-20-2014
L: 1/4
M: 4/4
K: D
A|"D"D F/G/ A> d|"G"B B "D"A2|"G"B/c/ d "D"A F|"Em"F E "A"A/G/F/E/|"D"D/E/F/G/ A A/d/|"G"B B "D"A2|
"G"B/c/ d "A"c/d/ e|"D"f d d e||"D"f/e/d/f/ "A"e A|"G"d/c/B/d/ "D"A2|"G"B/c/d/B/ "D"A F|
"Em"G/F/E/D/ "A7"E/G/F/E/|"D"D/E/F/G/ A A/d/|"G"B B "D"A2|"G"B/c/d/B/ "A"c/d/e/g/|"D"f d d |]